images/payment/payment-3.svg

<svg width="150" height="80" viewBox="0 0 150 80" fill="none" xmlns="http://www.w3.org/2000/svg">
<rect x="0.226562" y="0.885742" width="149.063" height="78.9159" rx="23.2911" fill="url(#paint0_linear_1181_25398)"/>
<path d="M76.4762 34.9671C76.4192 39.1202 80.4836 41.4376 83.5453 42.8155C86.6909 44.2292 87.7475 45.1358 87.735 46.4002C87.7116 48.335 85.2259 49.189 82.8998 49.2222C78.8417 49.2802 76.4821 48.2102 74.6063 47.401L73.1444 53.7189C75.0264 54.5198 78.5114 55.2184 82.1252 55.249C90.6081 55.249 96.1578 51.3816 96.1879 45.3854C96.2211 37.7754 84.7909 37.3541 84.869 33.9527C84.8959 32.9213 85.9615 31.8206 88.2965 31.5408C89.4523 31.3994 92.6428 31.2912 96.2601 32.8297L97.6799 26.717C95.7346 26.0628 93.2344 25.4364 90.1216 25.4364C82.1373 25.4364 76.5215 29.3564 76.4762 34.9671ZM111.322 25.9629C109.773 25.9629 108.468 26.7974 107.885 28.078L95.7678 54.8H104.244L105.931 50.4945H116.29L117.268 54.8H124.739L118.22 25.9629H111.322ZM112.508 33.7529L114.954 44.5816H108.255L112.508 33.7529ZM66.1987 25.9632L59.517 54.7997H67.5946L74.2732 25.9625H66.1987M54.2492 25.9625L45.8416 45.5906L42.4406 28.9017C42.0415 27.0386 40.4656 25.9629 38.7155 25.9629H24.9718L24.7793 26.8003C27.6008 27.3657 30.8066 28.2778 32.7488 29.2536C33.9374 29.8498 34.2763 30.3709 34.6668 31.7874L41.1083 54.8H49.6444L62.7313 25.9629L54.2492 25.9625Z" fill="url(#paint1_linear_1181_25398)"/>
<defs>
<linearGradient id="paint0_linear_1181_25398" x1="74.7582" y1="0.885742" x2="74.7582" y2="79.8016" gradientUnits="userSpaceOnUse">
<stop stop-color="white"/>
<stop offset="1" stop-color="#FFF5EF"/>
</linearGradient>
<linearGradient id="paint1_linear_1181_25398" x1="4620.34" y1="115.053" x2="4700.05" y2="-2947.11" gradientUnits="userSpaceOnUse">
<stop stop-color="#222357"/>
<stop offset="1" stop-color="#254AA5"/>
</linearGradient>
</defs>
</svg>

<svg width="150" height="80" fill="none" xmlns="http://www.w3.org/2000/svg"><rect x=".227" y=".886" width="149.063" height="78.916" rx="23.291" fill="url(#paint0_linear_1181_25398)"/><path d="M76.476 34.967c-.057 4.153 4.008 6.47 7.07 7.849 3.145 1.413 4.201 2.32 4.189 3.584-.023 1.935-2.51 2.789-4.835 2.822-4.058.058-6.418-1.012-8.294-1.821l-1.462 6.318c1.882.8 5.367 1.5 8.981 1.53 8.483 0 14.033-3.867 14.063-9.864.033-7.61-11.397-8.03-11.319-11.432.027-1.032 1.093-2.132 3.427-2.412 1.156-.142 4.347-.25 7.964 1.289l1.42-6.113c-1.945-.654-4.446-1.28-7.558-1.28-7.985 0-13.6 3.92-13.646 9.53zm34.846-9.004c-1.549 0-2.854.834-3.437 2.115L95.768 54.8h8.476l1.687-4.305h10.359l.978 4.305h7.471l-6.519-28.837h-6.898zm1.186 7.79l2.446 10.829h-6.699l4.253-10.83zm-46.31-7.79L59.518 54.8h8.078l6.678-28.837H66.2m-11.95 0L45.842 45.59 42.44 28.9c-.4-1.862-1.975-2.938-3.726-2.938H24.972l-.193.837c2.822.566 6.028 1.478 7.97 2.454 1.188.596 1.527 1.117 1.918 2.533L41.108 54.8h8.536l13.087-28.837H54.25z" fill="url(#paint1_linear_1181_25398)"/><defs><linearGradient id="paint0_linear_1181_25398" x1="74.758" y1=".886" x2="74.758" y2="79.802" gradientUnits="userSpaceOnUse"><stop stop-color="#fff"/><stop offset="1" stop-color="#FFF5EF"/></linearGradient><linearGradient id="paint1_linear_1181_25398" x1="4620.34" y1="115.053" x2="4700.05" y2="-2947.11" gradientUnits="userSpaceOnUse"><stop stop-color="#222357"/><stop offset="1" stop-color="#254AA5"/></linearGradient></defs></svg>
